!!!OTL: Xia sichuan
!!!ARE: Asia, China,ÿNingxia, Xiji
!! I, 202
!!!SCT: C1433
!!!YEM: Copyright 1995, estate of Helmut Schaffrath.
**kern
*ICvox
*Ivox
*M2/4
*k[b-]
*F:
{8cc
8ff
16dd
16ff
16dd
16cc
=1
16b-
16dd
16cc
16b-
4g
=2
8cc
8ff
16dd
16ff
16dd
16cc
=3
16b-
16dd
16cc
16b-
4g}
=4
{8ff
16ff
16dd
8ff
8dd
=5
16cc
16ff
16dd
16cc
8b-
16a
16g
=6
8f
4c
8cc
=7
8.b-
16a
16g
16f
16e
16d
=8
2c}
==
!!!AGN: Xiaodiao
!!!ONB: ESAC (Essen Associative Code) Database: HUANG
!!!AMT: simple duple
!!!AIN: vox
!!!EED: Helmut Schaffrath
!!!EEV: 1.0
*-
!!!OTL: Jin chi he
!!!ARE: Asia, China,ÿYunnan, Kunming
!! II, 85
!!!SCT: C1496
!!!YEM: Copyright 1995, estate of Helmut Schaffrath.
**kern
*ICvox
*Ivox
!! Mixed meters:  2/4; 3/4
*M3/4
*k[b-]
*F:
{8cc
16cc
16cc
8dd
16dd
8cc
=1
2gg
=2
4gg]
8gg
8gg
=3
2ff
8dd
8cc
=4
*M2/4
4cc
8dd
16dd
16cc
=5
*M3/4
4ff}
{16cc
16dd
8cc
8cc
8dd
=6
4cc
8g
8g
8f
8c
=7
8f
8g
8cc
8dd
8g
8g
=8
*M2/4
2f
=9
2c}
=10
{8ff
16dd
16dd
8dd
8cc
=11
8ff
16dd
16dd
8dd
8cc
=12
8ff
8gg
8a
8cc
=13
*M3/4
4ff
8cc
4.cc
=14
*M2/4
16g
16a
16g
16f
4g}
=15
{8f
8g
=16
*M3/4
8cc
8dd
4cc
8g
8g
=17
*M2/4
4f
8cc
8cc
=18
16g
16a
16g
16f
8f
8c
=19
8g
8a
8g
8g
=20
2f
=21
2c}
==
!!!AGN: Shange
!!!AMT: irregular
!!!AIN: vox
!!!EED: Helmut Schaffrath
!!!EEV: 1.0
*-
